!!!OTL: 727. Die Gefangene.
!!!ARE: Europa, Mitteleuropa, Deutschland, Schleswig Holstein; Hannover
!!!SCT: E0727
!!!TXL: @@DE
!!!YEM: Copyright 1995, estate of Helmut Schaffrath.
**kern	**text
*ICvox	*
*M2/4	*
*k[b-]	*
*F:	*
=1	=1
!LO:TX:a:t=Langsam.	!
!LO:TX:a:t=Aus Schleswig-Holſtein 1891 u. Hannover 1870.	!
{4.a	Ste-
8a	-he
=2	=2
8g	ich
8f	am
8e	Ei-
8f	-ſen-
=3	=3
8gL	-git-
8b-J	.
8b-	-ter,
8r}	.
=4	=4
{4.b-	in
8b-	der
=5	=5
8a	ſtil-
8b-	-len
8cc	Ein-
8g	-ſam-
=6	=6
4a	-keit,
4r}	.
=7	=7
{4.cc	kla-
8a	-ge
=8	=8
8ff	laut
8ee	und
8dd	wei-
8cc	-ne
=9	=9
8g/L	bit-
8ddJ	.
8dd	-ter,
8r}	.
=10	=10
{4.cc	kla-
8cc	-ge
=11	=11
8dd	Gott
8cc	mein
8b-/	Her-
8g	-ʒe-
=12	=12
4f	-leid.
4r}	.
==	==
!!!AGN: Liebes - Lied, Leid, Klage
!!!ONB: ESAC (Essen Associative Code) Database: ERK2
!!!AMT: simple duple
!!!AIN: vox
!!!EED: Helmut Schaffrath
!!!EEV: 1.0
!!!GTL: Liebeslieder [Neuere (aus dem 18. bis 19. Jahrh.) - Liebesleid] 678-740
!!!URL-scan: https://rosdok.uni-rostock.de/mcrviewer/recordIdentifier/rosdok_ppn745177662/iview2/phys_0532.iview2?x=193.8995864193107&y=1641.7330981823616&scale=0.7029437510502773&rotation=0&layout=singlePageLayout
!!!ENC: Anna Maria Matuszewska
!!!EEV: 2024/12/16
*-	*-
